X:580
T:The Phoenix
M:2/2
L:1/8
C:John Playford, 1670
S:Colin Hume's website,  colinhume.com  - chords can also be printed below the stave.
Q:1/2=120
K:F
|: "F"f2 c2 A2 F2 | "C"cdef g2 e2 | "Dm"fg a2 "Gm"g2 f2 | "C7"e3 d/e/ "F"f4 :|
|: "F"f2 c2 A2 F2 | "F"FGAB "F7"c2 A2 | "Bb"dBcA "Gm"BGAF | "C7"E3 D/E/ "F"F4 :|

